X:1
T:Shropshire, LM
T:Shropshire, LM
T:Edwrard John Hopkins, 1844
T:Public Domain Courtesy of the Cyber Hymnal™
C:Edwrard John Hopkins, 1844
Z:Public Domain
Z:Courtesy of the Cyber Hymnal™
%%score ( 1 2 ) ( 3 4 )
L:1/8
Q:1/4=110
M:4/4
K:Eb
V:1 treble 
V:2 treble 
V:3 bass 
V:4 bass 
V:1
 [EB]2 | [EG]2 [Ec]2 [EB]2 E2 | [CA]2 (GF) [EG]2 [FB]2 | [Fe]2 [Fd]2 [FG]2 [EB]2 | %4
 [FB]2 z !fermata![DB]2 [FB]2 x | [EG]2 [Gc]2 [FA]2 [EB]2 | [Ec]2 [Af]2 [Fd]2 [DB]2 | %7
 [Ee]2 [Ec]2 [DF]2 [EG]2 | [EG]2 [DF]2 E2 x |] %9
V:2
 x2 | x6 E2 | x2 D2 x4 | x8 | x2 (=A2 E) x3 | x8 | x8 | x8 | x4 E2 x |] %9
V:3
 [E,G,]2 | [E,B,]2 A,2 [G,B,]2 [C,G,]2 | [F,A,]2 [B,,B,]2 [E,B,]2 [D,B,]2 | %3
 [C,=A,]2 [D,B,]2 [E,B,]2 [G,B,]2 | [F,C]2 [F,C]2 !fermata![B,,B,]2 [D,B,]2 | %5
 [E,B,]2 [=E,C]2 [F,C]2 [G,_D]2 | [A,C]2 [F,C]2 B,2 [B,,A,]2 | [C,G,]2 [A,,A,]2 [B,,A,]2 [E,G,]2 | %8
 B,3 z A, [E,G,]2 |] %9
V:4
 x2 | x2 A,2 x4 | x8 | x8 | x8 | x8 | x4 B,2 x2 | x8 | B,,2 B,,2 x3 |] %9

